X:1
T:Title
%%score { ( 1 3 ) | ( 2 4 ) }
L:1/8
Q:1/4=100
M:3/4
K:Eb
V:1 treble nm="Grand Piano"
V:3 treble 
V:2 bass 
V:4 bass 
V:1
 GA Bc GB | A2 z2 B,2 | FG Ad Ac | z g fd eB | GA Bc GB | B2 z2 D2 | FG =Ae [Fd]c | [DB]6 | %8
w: Ira~B.~Wilson * * * * *||||||||
[M:4/4] .[EGB]2 .[EGB]2 [EGe]2 [Ec]2 | [DA]2 z2 A4 | .[DA]2 .[DA]2 [DAd]2 [DAc]2 | c4 G4 | %12
w: ||||
 .[B,EGB]2 .[B,EGB]2 [EBe]2 [EB]2 | [EBd]4 [EAc]4 | [GB][Ge][GB]A [B,EG]2 [A,DF]2 | [G,E]6 z2 |] %16
w: ||||
V:2
 E,,2 [E,G,B,]2 [E,G,B,]2 | F,,2 [F,A,B,]2 [F,A,]2 | B,,2 [F,B,D]2 [F,B,D]2 | %3
 E,,2 [E,G,B,]2 [E,G,B,]2 | E,,2 [E,G,B,]2 [E,G,B,]2 | F,,2 [F,B,D]2 [F,B,]2 | F,,2 z G z E | %7
 B,C B,A, G,F, |[M:4/4] z[K:treble] c z c[K:bass] E,2 G,2 | F,2 B,,2 F,2 B,,2 | %10
 z[K:treble] B z B[K:bass] F,2 B,,2 | E,2 E,,2 G,,2 B,,2 | %12
 z[K:treble] c z c[K:bass] [G,,G,]2 [G,,G,]2 | [A,,A,]2 [A,,A,]2 [A,,A,]2 [A,,A,]2 | %14
 [B,,B,]2 z F B,,2 B,,2 | E,6 z2 |] %16
V:3
 x6 | z2 D4 | x6 | B6 | x6 | z2 F4 | x6 | x6 |[M:4/4] x8 | d2- [B,DFd]2 [B,DF]2 [B,DF]2 | x8 | x8 | %12
 x8 | x8 | x8 | x8 |] %16
V:4
 x6 | x6 | x6 | x6 | x6 | x6 | z2 [F,CE]2 F,,2 | x6 |[M:4/4] E,2[K:treble] B,,2[K:bass] z4 | x8 | %10
 F,2[K:treble] B,,2[K:bass] z4 | x8 | E,2[K:treble] E,2[K:bass] z4 | x8 | z2 [B,,B,]2 z4 | x8 |] %16

